packages/ffe-icons/icons/open/300/sm/stairs.svg

<svg xmlns="http://www.w3.org/2000/svg" height="20" viewBox="0 -960 960 960" width="20"><path d="M409.999-394.001H480q11.069 0 18.534-7.491 7.465-7.491 7.465-18.598v-93.911H576q11.069 0 18.534-7.413 7.465-7.414 7.465-18.407v-94.18H660q11.069 0 18.534-7.404 7.465-7.405 7.465-18.384 0-10.98-7.465-18.595-7.465-7.615-18.534-7.615h-84.237q-10.532 0-18.147 7.491-7.615 7.491-7.615 18.598v93.911H480q-11.069 0-18.534 7.491-7.465 7.491-7.465 18.598v93.911H384q-11.069 0-18.534 7.413-7.465 7.414-7.465 18.407v94.18H300q-11.069 0-18.534 7.404-7.465 7.405-7.465 18.384 0 10.98 7.465 18.595 7.465 7.615 18.534 7.615h84.237q10.532 0 18.147-7.491 7.615-7.491 7.615-18.598v-93.911Zm-181.69 230q-27.008 0-45.658-18.65-18.65-18.65-18.65-45.658v-503.382q0-27.008 18.65-45.658 18.65-18.65 45.658-18.65h503.382q27.008 0 45.658 18.65 18.65 18.65 18.65 45.658v503.382q0 27.008-18.65 45.658-18.65 18.65-45.658 18.65H228.309Zm0-51.999h503.382q4.616 0 8.463-3.846 3.846-3.847 3.846-8.463v-503.382q0-4.616-3.846-8.463-3.847-3.846-8.463-3.846H228.309q-4.616 0-8.463 3.846-3.846 3.847-3.846 8.463v503.382q0 4.616 3.846 8.463 3.847 3.846 8.463 3.846ZM216-744v528-528Z"/></svg>

<svg xmlns="http://www.w3.org/2000/svg" height="20" viewBox="0 -960 960 960" width="20"><path d="M410-394h70q11.07 0 18.53-7.49 7.47-7.49 7.47-18.6V-514h70q11.07 0 18.53-7.41 7.47-7.42 7.47-18.41V-634h58q11.07 0 18.53-7.41 7.47-7.4 7.47-18.38 0-10.98-7.47-18.59Q671.07-686 660-686h-84.24q-10.53 0-18.14 7.49-7.62 7.49-7.62 18.6V-566h-70q-11.07 0-18.53 7.49-7.47 7.49-7.47 18.6V-446h-70q-11.07 0-18.53 7.41-7.47 7.42-7.47 18.41V-326h-58q-11.07 0-18.53 7.41-7.47 7.4-7.47 18.38 0 10.98 7.47 18.59Q288.93-274 300-274h84.24q10.53 0 18.14-7.49 7.62-7.49 7.62-18.6V-394ZM228.31-164q-27.01 0-45.66-18.65Q164-201.3 164-228.31v-503.38q0-27.01 18.65-45.66Q201.3-796 228.31-796h503.38q27.01 0 45.66 18.65Q796-758.7 796-731.69v503.38q0 27.01-18.65 45.66Q758.7-164 731.69-164H228.31Zm0-52h503.38q4.62 0 8.46-3.85 3.85-3.84 3.85-8.46v-503.38q0-4.62-3.85-8.46-3.84-3.85-8.46-3.85H228.31q-4.62 0-8.46 3.85-3.85 3.84-3.85 8.46v503.38q0 4.62 3.85 8.46 3.84 3.85 8.46 3.85ZM216-744v528-528Z"/></svg>
